X: 1345
T: Clementine
C:trad
B: australian traditional tunes wiki
M:3/4
L:1/8
R: Mazurka
Q: 1/4=100
K:D
V:1 
d>d|:"D"d2A2f>f|f2d2d>f|a2a2g>f|"A"e4e>f|
g2g2f>e|"D"f2d2 d>f|"A"e2A2c>e|1"D"d4d>d:|2"D"d4a>g||
|:"D"a>fd2a>g|a>fd2e>f|"A"g>ec2A2|"D"f>ed2a>g|
"D"a>fd2a>g|a>fd2e>f|"A"g>ec2f>e|"D"d4z2:|
% abcbook-tune_id 6342d53ab71c864a93440486


% abcbook-boost 0
% abcbook-tablature 
% abcbook-transpose 
% abcbook-lastupdated 1665324360379
% abcbook-soundfonts 
% abcbook-repeats 1
% NFF Book 2019

